X: 39850
T: This Gloom On My Soul
R: waltz
M: 3/4
K: Gmajor
|:g>f|e2d2B2|A3z B>A|G2E2D2|E3z B>d|e2B2d2|A4G2|(G6|G2)z2:|
B>d|e2d2e2|d3z g>f|e2d2e2|d3z e>g|a2e2g2|d4B2|(A6|A2)z2g>f|
e2d2B2|A3z B>A|G2E2D2|E3z B>d|e2B2d2|A4G2|(G6|G2)z2||

